client/assets/icons/user_icon.svg

<svg width="21" height="25" viewBox="0 0 21 25" class="icon icon-account" xmlns="http://www.w3.org/2000/svg">
<path fill-rule="evenodd" clip-rule="evenodd" d="M10.4738 1.97301C8.04647 1.97301 6.13986 3.88364 6.13986 6.16567C6.13986 8.4477 8.04647 10.3583 10.4738 10.3583C12.9011 10.3583 14.8078 8.4477 14.8078 6.16567C14.8078 3.88364 12.9011 1.97301 10.4738 1.97301ZM4.18958 6.16567C4.18958 2.72695 7.03686 0 10.4738 0C13.9108 0 16.7581 2.72695 16.7581 6.16567C16.7581 9.60438 13.9108 12.3313 10.4738 12.3313C7.03686 12.3313 4.18958 9.60438 4.18958 6.16567Z"></path>
<path fill-rule="evenodd" clip-rule="evenodd" d="M14.077 15.7281C11.69 15.33 9.25762 15.33 6.87056 15.7281L6.58977 15.775C3.98522 16.2094 2.02719 18.571 2.02719 21.3926C2.02719 22.2839 2.71033 22.9492 3.48423 22.9492H17.4634C18.2372 22.9492 18.9204 22.2839 18.9204 21.3926C18.9204 18.571 16.9624 16.2094 14.3579 15.775L14.077 15.7281ZM14.4068 13.7047L14.6876 13.7514C18.3179 14.357 20.9476 17.6157 20.9476 21.3926C20.9476 23.3532 19.4184 25 17.4634 25H3.48423C1.52913 25 0 23.3532 0 21.3926C0 17.6157 2.6297 14.357 6.25999 13.7514L6.5408 13.7047C9.14624 13.27 11.8013 13.27 14.4068 13.7047Z"></path>
</svg>

<svg width="21" height="25" class="icon icon-account" xmlns="http://www.w3.org/2000/svg"><path fill-rule="evenodd" clip-rule="evenodd" d="M10.474 1.973c-2.428 0-4.334 1.91-4.334 4.193 0 2.282 1.906 4.192 4.334 4.192 2.427 0 4.334-1.91 4.334-4.192S12.9 1.973 10.474 1.973ZM4.19 6.166C4.19 2.726 7.037 0 10.474 0s6.284 2.727 6.284 6.166c0 3.438-2.847 6.165-6.284 6.165S4.19 9.604 4.19 6.166ZM14.077 15.728a21.891 21.891 0 0 0-7.206 0l-.281.047c-2.605.434-4.563 2.796-4.563 5.618 0 .89.683 1.556 1.457 1.556h13.98c.773 0 1.456-.665 1.456-1.556 0-2.822-1.958-5.184-4.562-5.618l-.281-.047Zm.33-2.023.28.046c3.63.606 6.26 3.865 6.26 7.642 0 1.96-1.529 3.607-3.484 3.607H3.484C1.53 25 0 23.353 0 21.393c0-3.777 2.63-7.036 6.26-7.642l.28-.046a23.886 23.886 0 0 1 7.867 0Z"/></svg>
